X: 41733
T: Valse Astrid
R: waltz
M: 3/4
K: Eminor
E4 F2|G4 A2|G3 A GF|E2 G2 B2|e3 d cB|A2 c2 e2|1 B4 c2|B3 A GF:|2 (B6|B6)||
e3 d cB|A2 c2 e2|B3 c BG|E4 EF|G2 c2 B2|A2 G2 F2|1 E2 G2 F2|E2 G2 B2:|2 E3 G F2|E6||

